src/icons/1x5.svg

<svg xmlns="http://www.w3.org/2000/svg" width="512" height="512" viewBox="0 0 512 512">
    <path d="M373.7 89.5H416v320h-42.3v-320zm-69.4 0h42.3v320h-42.3v-320zm-69.5 0h42.3v320h-42.3v-320zm-69.4 0h42.3v320h-42.3v-320zm-69.4 0h42.3v320H96v-320z"/>
</svg>

<?xml version="1.0" encoding="UTF-8"?>
<svg width="512px" height="512px" viewBox="0 0 512 512" version="1.1" xmlns="http://www.w3.org/2000/svg" xmlns:xlink="http://www.w3.org/1999/xlink">
    <!-- Generator: Sketch 62 (91390) - https://sketch.com -->
    <title>1x5</title>
    <desc>Created with Sketch.</desc>
    <g id="1x5" stroke="none" stroke-width="1" fill="none" fill-rule="evenodd">
        <path d="M373.7,89.5 L416,89.5 L416,409.5 L373.7,409.5 L373.7,89.5 Z M304.3,89.5 L346.6,89.5 L346.6,409.5 L304.3,409.5 L304.3,89.5 Z M234.8,89.5 L277.1,89.5 L277.1,409.5 L234.8,409.5 L234.8,89.5 Z M165.4,89.5 L207.7,89.5 L207.7,409.5 L165.4,409.5 L165.4,89.5 L165.4,89.5 Z M96,89.5 L138.3,89.5 L138.3,409.5 L96,409.5 L96,89.5 Z" id="Shape" fill="#000000" fill-rule="nonzero"></path>
    </g>
</svg>
